X:8005
T:Hobarts Transformation
R:Reel
C:Trad.
N:Hobart (B.1775) was early American Bishop
O:USA
M:4/4
L:1/8
Q:1/4=160
K:Em
"Am"e2 a2 ab ag|e2 a2 ab ag|"Em"ed ef gf gf|ed ef gf gf|
"Am"e2 a2 ab ag|e2 a2 ab ag|"Em"ed ef gf gf|"Am"ed cB A4:|
|:"Am"A2 Ac "Em"BA GB|"Am"AB AG E2 EG|"Am"AG AB c2 d2|"Em"e3 =f e4|
"Am"A2 Ac BA GB|AB AG E2 AB|cB Ac BA G2|A3 B A4:|

